X: 2
T: Easy Club + harmonies
C: Jim Sutherland
I: Easy Club	R-98	A	reel
M: C|
R: reel
K: A
"^A"E2 |\
"A"A2cA "E"BcdB | "A"cdec "D"defg |\
"A"agae faec | "E"dcc(B B)dcB |\
"A"A2cA "E"BcdB |
"A"cdec "D"defg |\
"A"agae faec | "G"dB=GB "A"A2 "^B":: ce |\
"D"faa(d d)aga | "A"eaa(c c)aga |
"D"faa(d d)aga | "A"cee(B "E"B)dcB |\
"A"A2cA "E"BcdB | "A"cdec "D"defg |\
"A"agae faec | "G"dB=GB "A"A2 :|
% - - - - - - - - - -
P: Alternatives to A, to be played occasionally in place of the usual A's:
|: A4 B4 | c4 d4 | e4 d4 | c3B- B2z2 | A4 B4 | c4 d4 | e4 c4 | =G3A- A2z2 :|
|: c4 d4 | e4 f4 | g4 f4 | e3d- d2z2 | c4 d4 | e4 f4 | g4 e4 |  B3c- c2z2 :|


